!! 00010] TT[TB
!! Eigene Aufnahme
!!!OTL: Jin zhu ri ma Rolgarm-a            (M.S  1183)
!!!ARE: Neimeng
!! Ethnic Group: Menggu
!! MM, S. 1189
!!!SCT: C0571
!!!YEM: Copyright 1995, estate of Helmut Schaffrath.
**kern
*ICvox
*Ivox
*M4/4
*k[]
*C:
{4e
4a
4a
8g
8a
=1
4e
4a
4a
4a}
=2
{4a
4ee
4ee
8dd
8ee
=3
4.cc
8a
4dd
4gg
=4
1ee}
=5
{4a
4ee
4ee
8dd
8gg
=6
4ee
8ee
8dd
4cc
4a}
=7
{4.a
8cc
4dd
4ee
=8
4ee
4e
4.g
8cc
=9
1a}
==
!!!AGN: NN
!! Saenger: Chao Lun Batou, der das Buch nur zum Nachschlagen
!!    benutzte und ansonsten auswendig sang. Da er aus dem Osten der
!!    Neimeng kommt, kennt er nicht so viele Lieder des Westens.
!!    Alle Lieder wurden mit erkaelteter, halber Stimme in meinem
!!    Zimmer gesungen. FOTO VORHANDEN (DIAS)  31.3.87
!!    +++ Titel: moegl. Lesefehler des Uebersetzers: S. Seitenzahl! +++
!!    Variante.
!!!ONB: ESAC (Essen Associative Code) Database: CHINA
!!!AMT: simple quadruple
!!!AIN: vox
!!!EED: Helmut Schaffrath
!!!EEV: 1.0
*-
